X:814
T:Reel 814
M:4/4
K:Amaj
L:1/8
E,A,A,G, B,CDB,|E2DB, CA,B,G,|E,A,A,G, A,B,CD||EAAF GEDB,:||2A,CB,A, G,B,D2|E,A,A,G, A,CB,A,|G,2B,G, DB,B,D|EA,A,G, A,B,CE|DB,G,A, B,CDB,|EA,A,G, A,CB,A,|G,2B,E, A,B,CD|E2FG FEFA|GEDB, A,2DB,|EAAF G2AF|GEAF GEFA|G2GE G2GA|BcBA GEDB,|EAAG A2BA|GEEF GEFA|BGAF GEFD|B,CDB, G,A,B,G,|
